src/next/cmd/sc_romanliststyle.svg

<svg height="16" viewBox="0 0 4.2333333 4.2333335" width="16" xmlns="http://www.w3.org/2000/svg" xmlns:xlink="http://www.w3.org/1999/xlink"><linearGradient id="a"><stop offset="0" stop-color="#06f"/><stop offset="1" stop-color="#80b3ff"/></linearGradient><linearGradient id="b" gradientUnits="userSpaceOnUse" x1="30.368584" x2="35.48856" xlink:href="#a" y1="33.42857" y2="-22.285715"/><linearGradient id="c" gradientUnits="userSpaceOnUse" x1="40.401783" x2="35.48856" xlink:href="#a" y1="7.080382" y2="-22.285715"/><linearGradient id="d" gradientUnits="userSpaceOnUse" x1="28.044643" x2="35.48856" xlink:href="#a" y1="17.008949" y2="-22.285715"/><path d="m20 .15429688a7.8457428 7.8457428 0 0 0 -7.845703 7.84570312v12a7.8457428 7.8457428 0 0 0 7.845703 7.845703h.154297v8.308594h-.154297a7.8457428 7.8457428 0 0 0 -7.845703 7.845703v12a7.8457428 7.8457428 0 0 0 7.845703 7.845703h28a7.8457428 7.8457428 0 0 0 7.845703-7.845703v-12a7.8457428 7.8457428 0 0 0 -7.845703-7.845703h-.154297v-8.308594h.154297a7.8457428 7.8457428 0 0 0 7.845703-7.845703v-12a7.8457428 7.8457428 0 0 0 -7.845703-7.84570312z" fill="url(#b)" transform="matrix(.0264583325 0 0 .0264583325 .224895875 .211666625)"/><path d="m20 8v12h8v24h-8v12h28v-12h-8v-24h8v-12z" fill="#bfd9ff" transform="matrix(.0264583325 0 0 .0264583325 .224895875 .211666625)"/><g fill="#404040" fill-opacity=".839216" transform="matrix(-.125 0 0 .125 0 -32.891665)"><path d="m-31.856726 269.48331h17.04006v2.1167h-17.04006z"/><path d="m-27.516666 273.71664h12.699999v2.11669h-12.699999z"/><path d="m-31.856724 284.29999h17.04006v2.1167h-17.04006z"/><path d="m-27.516665 288.53333h12.699999v2.11669h-12.699999z"/></g><g transform="matrix(.1 0 0 .1 .395693875 -25.67856875)"><path d="m20 .15429688a7.8457428 7.8457428 0 0 0 -7.845703 7.84570312v12a7.8457428 7.8457428 0 0 0 7.845703 7.845703h.154297v8.308594h-.154297a7.8457428 7.8457428 0 0 0 -7.845703 7.845703v12a7.8457428 7.8457428 0 0 0 7.845703 7.845703h28a7.8457428 7.8457428 0 0 0 7.845703-7.845703v-12a7.8457428 7.8457428 0 0 0 -7.845703-7.845703h-.154297v-8.308594h.154297a7.8457428 7.8457428 0 0 0 7.845703-7.845703v-12a7.8457428 7.8457428 0 0 0 -7.845703-7.84570312z" fill="url(#d)" transform="matrix(.26458333 0 0 .26458333 -7.408334 280.06665)"/><path d="m20 .15429688a7.8457428 7.8457428 0 0 0 -7.845703 7.84570312v12a7.8457428 7.8457428 0 0 0 7.845703 7.845703h.154297v8.308594h-.154297a7.8457428 7.8457428 0 0 0 -7.845703 7.845703v12a7.8457428 7.8457428 0 0 0 7.845703 7.845703h28a7.8457428 7.8457428 0 0 0 7.845703-7.845703v-12a7.8457428 7.8457428 0 0 0 -7.845703-7.845703h-.154297v-8.308594h.154297a7.8457428 7.8457428 0 0 0 7.845703-7.845703v-12a7.8457428 7.8457428 0 0 0 -7.845703-7.84570312z" fill="url(#c)" transform="matrix(.26458333 0 0 .26458333 -.094494 280.04775)"/><g fill="#bfd9ff"><path d="m-2.1166669 282.18332v3.175h2.1166666v6.35h-2.1166666v3.175h7.4083334v-3.175h-2.116667v-6.35h2.116667v-3.175z"/><path d="m5.1971726 282.16442v3.175h2.1166666v6.35h-2.1166666v3.175h7.4083334v-3.175h-2.116667v-6.35h2.116667v-3.175z"/></g></g></svg>

<?xml version="1.0" encoding="UTF-8" standalone="no"?>
<svg
   xmlns:dc="http://purl.org/dc/elements/1.1/"
   xmlns:cc="http://creativecommons.org/ns#"
   xmlns:rdf="http://www.w3.org/1999/02/22-rdf-syntax-ns#"
   xmlns:svg="http://www.w3.org/2000/svg"
   xmlns="http://www.w3.org/2000/svg"
   xmlns:xlink="http://www.w3.org/1999/xlink"
   xmlns:sodipodi="http://sodipodi.sourceforge.net/DTD/sodipodi-0.dtd"
   xmlns:inkscape="http://www.inkscape.org/namespaces/inkscape"
   height="16"
   viewBox="0 0 4.2333333 4.2333335"
   width="16"
   version="1.1"
   id="svg36"
   sodipodi:docname="sc_romanliststyle.svg"
   inkscape:version="0.92.4 (unknown)"
   inkscape:export-filename="/home/rizmut/Dokumen/Rizmut/Github/libreoffice-style-karasa-jaga/build/next/cmd/sc_romanliststyle.png"
   inkscape:export-xdpi="96"
   inkscape:export-ydpi="96">
  <metadata
     id="metadata42">
    <rdf:RDF>
      <cc:Work
         rdf:about="">
        <dc:format>image/svg+xml</dc:format>
        <dc:type
           rdf:resource="http://purl.org/dc/dcmitype/StillImage" />
        <dc:title></dc:title>
      </cc:Work>
    </rdf:RDF>
  </metadata>
  <defs
     id="defs40" />
  <sodipodi:namedview
     pagecolor="#ffffff"
     bordercolor="#666666"
     borderopacity="1"
     objecttolerance="10"
     gridtolerance="10"
     guidetolerance="10"
     inkscape:pageopacity="0"
     inkscape:pageshadow="2"
     inkscape:window-width="1366"
     inkscape:window-height="714"
     id="namedview38"
     showgrid="true"
     inkscape:zoom="20.85965"
     inkscape:cx="10.359212"
     inkscape:cy="5.3091794"
     inkscape:window-x="0"
     inkscape:window-y="28"
     inkscape:window-maximized="1"
     inkscape:current-layer="svg36">
    <inkscape:grid
       type="xygrid"
       id="grid849" />
  </sodipodi:namedview>
  <linearGradient
     id="a">
    <stop
       offset="0"
       stop-color="#06f"
       id="stop2" />
    <stop
       offset="1"
       stop-color="#80b3ff"
       id="stop4" />
  </linearGradient>
  <linearGradient
     id="b"
     gradientUnits="userSpaceOnUse"
     x1="30.368584"
     x2="35.48856"
     xlink:href="#a"
     y1="33.42857"
     y2="-22.285715" />
  <linearGradient
     id="c"
     gradientUnits="userSpaceOnUse"
     x1="40.401783"
     x2="35.48856"
     xlink:href="#a"
     y1="7.0803819"
     y2="-22.285715" />
  <linearGradient
     id="d"
     gradientUnits="userSpaceOnUse"
     x1="28.044643"
     x2="35.48856"
     xlink:href="#a"
     y1="17.008949"
     y2="-22.285715" />
  <g
     id="g867"
     transform="scale(0.125)">
    <path
       id="path10"
       transform="matrix(0.21166666,0,0,0.21166666,1.799167,1.693333)"
       d="M 20,0.15429688 A 7.8457428,7.8457428 0 0 0 12.154297,8 V 20 A 7.8457428,7.8457428 0 0 0 20,27.845703 h 0.154297 v 8.308594 H 20 A 7.8457428,7.8457428 0 0 0 12.154297,44 V 56 A 7.8457428,7.8457428 0 0 0 20,63.845703 H 48 A 7.8457428,7.8457428 0 0 0 55.845703,56 V 44 A 7.8457428,7.8457428 0 0 0 48,36.154297 H 47.845703 V 27.845703 H 48 A 7.8457428,7.8457428 0 0 0 55.845703,20 V 8 A 7.8457428,7.8457428 0 0 0 48,0.15429688 Z"
       inkscape:connector-curvature="0"
       style="fill:url(#b)" />
    <path
       id="path12"
       transform="matrix(0.21166666,0,0,0.21166666,1.799167,1.693333)"
       d="m 20,8 v 12 h 8 V 44 H 20 V 56 H 48 V 44 H 40 V 20 h 8 V 8 Z"
       inkscape:connector-curvature="0"
       style="fill:#bfd9ff" />
    <g
       id="g22"
       transform="matrix(-1,0,0,1,0,-263.13332)"
       style="fill:#404040;fill-opacity:0.83921599">
      <path
         id="path14"
         d="m -31.856726,269.48331 h 17.04006 v 2.1167 h -17.04006 z"
         inkscape:connector-curvature="0" />
      <path
         id="path16"
         d="m -27.516666,273.71664 h 12.699999 v 2.11669 h -12.699999 z"
         inkscape:connector-curvature="0" />
      <path
         id="path18"
         d="m -31.856724,284.29999 h 17.04006 v 2.1167 h -17.04006 z"
         inkscape:connector-curvature="0" />
      <path
         id="path20"
         d="m -27.516665,288.53333 h 12.699999 v 2.11669 h -12.699999 z"
         inkscape:connector-curvature="0" />
    </g>
    <g
       id="g34"
       transform="matrix(0.8,0,0,0.8,3.165551,-205.42855)">
      <path
         id="path24"
         transform="matrix(0.26458333,0,0,0.26458333,-7.408334,280.06665)"
         d="M 20,0.15429688 A 7.8457428,7.8457428 0 0 0 12.154297,8 V 20 A 7.8457428,7.8457428 0 0 0 20,27.845703 h 0.154297 v 8.308594 H 20 A 7.8457428,7.8457428 0 0 0 12.154297,44 V 56 A 7.8457428,7.8457428 0 0 0 20,63.845703 H 48 A 7.8457428,7.8457428 0 0 0 55.845703,56 V 44 A 7.8457428,7.8457428 0 0 0 48,36.154297 H 47.845703 V 27.845703 H 48 A 7.8457428,7.8457428 0 0 0 55.845703,20 V 8 A 7.8457428,7.8457428 0 0 0 48,0.15429688 Z"
         inkscape:connector-curvature="0"
         style="fill:url(#d)" />
      <path
         id="path26"
         transform="matrix(0.26458333,0,0,0.26458333,-0.094494,280.04775)"
         d="M 20,0.15429688 A 7.8457428,7.8457428 0 0 0 12.154297,8 V 20 A 7.8457428,7.8457428 0 0 0 20,27.845703 h 0.154297 v 8.308594 H 20 A 7.8457428,7.8457428 0 0 0 12.154297,44 V 56 A 7.8457428,7.8457428 0 0 0 20,63.845703 H 48 A 7.8457428,7.8457428 0 0 0 55.845703,56 V 44 A 7.8457428,7.8457428 0 0 0 48,36.154297 H 47.845703 V 27.845703 H 48 A 7.8457428,7.8457428 0 0 0 55.845703,20 V 8 A 7.8457428,7.8457428 0 0 0 48,0.15429688 Z"
         inkscape:connector-curvature="0"
         style="fill:url(#c)" />
      <g
         id="g32"
         style="fill:#bfd9ff">
        <path
           id="path28"
           d="m -2.1166669,282.18332 v 3.175 H -3e-7 v 6.35 h -2.1166666 v 3.175 h 7.4083334 v -3.175 h -2.116667 v -6.35 h 2.116667 v -3.175 z"
           inkscape:connector-curvature="0" />
        <path
           id="path30"
           d="m 5.1971726,282.16442 v 3.175 h 2.1166666 v 6.35 H 5.1971726 v 3.175 h 7.4083334 v -3.175 h -2.116667 v -6.35 h 2.116667 v -3.175 z"
           inkscape:connector-curvature="0" />
      </g>
    </g>
  </g>
</svg>
